X: 104
T: No_32_Song_of_Help_in_the_Fight.krn
%%abc-version 2.0
%%abcx-abcm2ps-target-version 5.9.1 (29 Sep 2008)
%%abc-creator hum2abc beta
%%abcx-conversion-date 2020/08/10 18:54:57
%%gracespace 0 6 6
%%humdrum-veritas 1175197538
%%humdrum-veritas-data 2614798366
%%linebreak <none>
%%barnumbers 0
L: 1/4
M: 2/4
%%staves {1 2}
V: 1 clef=bass
V: 2 clef=bass
K: D
[V:1] [K:clef=bass][M:2/4]DD ||  
[V:2] [K:clef=bass][M:2/4]G,,/G,,/ G,,/G,,/ ||  
[V:1] [M:3/4]_E>DD | 
[V:2] [M:3/4]G,,/G,,/ G,,/G,,/ G,,/G,,/ | 
[V:1] D3 | 
[V:2] z3 | 
[V:1] DCB, ||  
[V:2] z3 ||  
[V:1] [M:2/4]A,A, | 
[V:2] [M:2/4]z2 | 
[V:1] B,B, | 
[V:2] z2 | 
[V:1] A,2 | 
[V:2] z2 | 
[V:1] A,A, ||  
[V:2] z2 ||  
[V:1] [M:3/4]A,2^G, | 
[V:2] [M:3/4]z3 | 
[V:1] G,3 | 
[V:2] z3 | 
[V:1] G,F,E, ||  
[V:2] z3 ||  
[V:1] [M:2/4]G,G, | 
[V:2] [M:2/4]z2 | 
[V:1] A,A, | 
[V:2] z2 | 
[V:1] G,2 | 
[V:2] z2 | 
[V:1] G,G, ||  
[V:2] z2 ||  
[V:1] [M:3/4]G,2E, | 
[V:2] [M:3/4]z3 | 
[V:1] D,3 | 
[V:2] z3 | 
[V:1] G,G,E, ||  
[V:2] z3 ||  
[V:1] [M:2/4]D,D, | 
[V:2] [M:2/4]z2 | 
[V:1] E,E, | 
[V:2] z2 | 
[V:1] D,2 |]  
[V:2] z2 |]  


